client/src/assets/icons/jam_facebook.svg

<svg width="40" height="40" viewBox="0 0 40 40" fill="none" xmlns="http://www.w3.org/2000/svg">
<path d="M15.0767 9.77492V14.3549H11.72V19.9549H15.0767V36.5983H21.9667V19.9566H26.5917C26.5917 19.9566 27.025 17.2716 27.235 14.3349H21.995V10.5049C21.995 9.93325 22.745 9.16325 23.4883 9.16325H27.245V3.33325H22.1383C14.905 3.33325 15.0767 8.93825 15.0767 9.77492Z" fill="#4042E2"/>
</svg>

<svg xmlns="http://www.w3.org/2000/svg" width="40" height="40" fill="none" viewBox="0 0 40 40">
  <path fill="#4042E2" d="M15.077 9.775v4.58H11.72v5.6h3.357v16.643h6.89V19.957h4.625s.433-2.685.643-5.622h-5.24v-3.83c0-.572.75-1.342 1.493-1.342h3.757v-5.83h-5.107c-7.233 0-7.061 5.605-7.061 6.442Z"/>
</svg>
